apps/scalable/google-play-music.svg

<svg height="48" width="48" xmlns="http://www.w3.org/2000/svg" xmlns:xlink="http://www.w3.org/1999/xlink"><linearGradient gradientUnits="userSpaceOnUse" x1="0" x2="47" y1="23.5" y2="23.5"><stop offset="0" stop-color="#a9a3d4"/><stop offset=".47001833" stop-color="#87baff"/><stop offset="1" stop-color="#89ec85"/></linearGradient><linearGradient id="a" gradientUnits="userSpaceOnUse" x1="18.586148344424" x2="18.586148344424" y1="1042.541014201687" y2="1012.1156907058"><stop offset="0" stop-color="#f60"/><stop offset="1" stop-color="#ff7f2a"/></linearGradient><linearGradient id="b" gradientTransform="matrix(.18512065 .02600396 -.02600396 .18512065 15.998668 1005.4995)" gradientUnits="userSpaceOnUse" x1="29.444031" x2="29.444031" y1="201.7325" y2="18.617405"><stop offset="0" stop-color="#e3e3e3"/><stop offset="1" stop-color="#fcf9f9"/></linearGradient><linearGradient id="c" gradientUnits="userSpaceOnUse" x1="17.930488701651" x2="17.828479831464" y1="1047.278183631286" y2="1007.801468544364"><stop offset="0" stop-color="#f7881a"/><stop offset="1" stop-color="#fbc967"/></linearGradient><g stroke-width="1.317422" transform="matrix(1.161737206319 0 0 1.161737206319 3.892122362618 -1168.867803048244)"><circle cx="18.179415" cy="1027.6479" fill="url(#c)" r="19.797937"/><circle cx="18.586145" cy="1027.7184" fill="url(#a)" r="15.602746"/><path d="m30.419922 9.8378906v.0019532c-1.18558.1496317-3.954449.4810712-3.458984 2.0585942l-.21875-.21875-3.091797 22.019531c-1.018054-.926137-3.912846-1.683357-4.367188-.966797l-.21875-.216797c-2.721562.265457-5.558421 2.571689-5.234375 5.513672.128324 1.018611.648137 1.817065 1.294922 2.537109-.01887-.020911-.042037-.034567-.060547-.05664l.078125.078125c.264342.292641.553764.567953.84375.84375l6.392578 6.392578a23 23 0 0 0 2.632813.164062 23 23 0 0 0 23-23 23 23 0 0 0 -.277344-3.445312l-7.892578-7.892578c-.189103-.178211-.509878-.50785-.785156-.785157l-.523438-.523437c-1.111562-.784405-.451942-.134132.083985.390625l-.822266-.820313z" fill-opacity=".078431" transform="matrix(.86077987 0 0 .86077987 -3.350261 1006.1379)"/><path d="m29.712509 1017.7493s.194364-.6475.05785-.9245c-.128136-.2598-.721274-.4851-.721274-.4851l-6.349826-1.7863h-.000009-.000008c-1.137392.1555-2.996797.3898-3.164692 1.585l-2.662409 18.9536c-1.023149-.7692-2.413024-1.2171-3.946943-1.0196-2.767992.3566-4.7700196 2.4843-4.5052696 4.7472.264827 2.2623 2.7191606 3.8503 5.4871096 3.4939 2.208314-.2847 3.905815-1.7286 4.384004-3.4358l2.577683-17.9023 7.185755-.9832" fill="url(#b)"/></g></svg>

<?xml version="1.0" encoding="UTF-8" standalone="no"?>
<!-- Created with Inkscape (http://www.inkscape.org/) -->

<svg
   xmlns:dc="http://purl.org/dc/elements/1.1/"
   xmlns:cc="http://creativecommons.org/ns#"
   xmlns:rdf="http://www.w3.org/1999/02/22-rdf-syntax-ns#"
   xmlns:svg="http://www.w3.org/2000/svg"
   xmlns="http://www.w3.org/2000/svg"
   xmlns:xlink="http://www.w3.org/1999/xlink"
   xmlns:sodipodi="http://sodipodi.sourceforge.net/DTD/sodipodi-0.dtd"
   xmlns:inkscape="http://www.inkscape.org/namespaces/inkscape"
   width="48"
   height="48"
   id="svg5453"
   version="1.1"
   inkscape:version="0.91 r13725"
   sodipodi:docname="chrome-fahmaaghhglfmonjliepjlchgpgfmobi.svg">
  <defs
     id="defs5455">
    <linearGradient
       inkscape:collect="always"
       id="linearGradient4251">
      <stop
         style="stop-color:#ff6600;stop-opacity:1"
         offset="0"
         id="stop4253" />
      <stop
         style="stop-color:#ff7f2a;stop-opacity:1"
         offset="1"
         id="stop4255" />
    </linearGradient>
    <linearGradient
       id="linearGradient4333"
       inkscape:collect="always">
      <stop
         id="stop4335"
         offset="0"
         style="stop-color:#f7881a;stop-opacity:1" />
      <stop
         id="stop4337"
         offset="1"
         style="stop-color:#fbc967;stop-opacity:1" />
    </linearGradient>
    <linearGradient
       id="linearGradient8311-06">
      <stop
         id="stop8313-6"
         style="stop-color:#a9a3d4;stop-opacity:1"
         offset="0" />
      <stop
         offset="0.47001833"
         style="stop-color:#87baff;stop-opacity:1"
         id="stop4462" />
      <stop
         id="stop8315-2"
         style="stop-color:#89ec85;stop-opacity:1"
         offset="1" />
    </linearGradient>
    <linearGradient
       gradientUnits="userSpaceOnUse"
       y2="23.5"
       x2="47"
       y1="23.5"
       x1="0"
       id="linearGradient4460"
       xlink:href="#linearGradient8311-06"
       inkscape:collect="always" />
    <linearGradient
       gradientTransform="matrix(0.7801371,0,0,0.7801371,-300.15559,619.08418)"
       gradientUnits="userSpaceOnUse"
       y2="503.798"
       x2="408.57144"
       y1="542.79797"
       x1="408.57144"
       id="linearGradient4489-1"
       xlink:href="#linearGradient4251"
       inkscape:collect="always" />
    <clipPath
       clipPathUnits="userSpaceOnUse"
       id="clipPath5654">
      <g
         style="stroke:none;stroke-width:14.07298756;stroke-miterlimit:4;stroke-dasharray:none;stroke-opacity:1"
         transform="matrix(0.9780309,0,0,0.9780309,8.0000149,2.806837)"
         id="g5656">
        <g
           style="fill:url(#linearGradient5710);fill-opacity:1;stroke:none;stroke-width:1.2243638;stroke-miterlimit:4;stroke-dasharray:none;stroke-opacity:1"
           inkscape:label="Layer 1"
           id="g5658"
           transform="matrix(11.494123,0,0,11.494123,-4217.9843,-5980.6616)">
          <g
             id="g5660"
             inkscape:label="Layer 1"
             transform="translate(-0.11123528,0.03124873)"
             style="fill:url(#linearGradient5708);fill-opacity:1;stroke:none;stroke-width:1.2243638;stroke-miterlimit:4;stroke-dasharray:none;stroke-opacity:1">
            <g
               style="fill:url(#linearGradient5706);fill-opacity:1;stroke:none;stroke-width:1.2243638;stroke-miterlimit:4;stroke-dasharray:none;stroke-opacity:1"
               transform="translate(0.13524268,0.04517549)"
               inkscape:label="Layer 1"
               id="g5662">
              <circle
                 r="13.999958"
                 cy="531.79797"
                 cx="400.57144"
                 id="circle5664"
                 style="opacity:1;fill:url(#linearGradient5702);fill-opacity:1;stroke:none;stroke-width:1.2243638;stroke-miterlimit:4;stroke-dasharray:none;stroke-dashoffset:0;stroke-opacity:1" />
              <circle
                 r="0"
                 cy="531.79791"
                 cx="400.57138"
                 id="circle5666"
                 style="opacity:1;fill:url(#linearGradient5704);fill-opacity:1;stroke:none;stroke-width:1.2243638;stroke-miterlimit:4;stroke-dasharray:none;stroke-dashoffset:0;stroke-opacity:1" />
            </g>
          </g>
        </g>
        <g
           id="g5668"
           transform="matrix(6.3157549,0,0,6.3157549,271.42775,15.609621)"
           style="fill:url(#linearGradient5744);fill-opacity:1;stroke:none;stroke-width:2.22823524;stroke-miterlimit:4;stroke-dasharray:none;stroke-opacity:1">
          <g
             id="g5670"
             style="fill:url(#linearGradient5712);fill-opacity:1;stroke:none;stroke-width:2.22823524;stroke-miterlimit:4;stroke-dasharray:none;stroke-opacity:1" />
          <g
             id="g5672"
             style="fill:url(#linearGradient5714);fill-opacity:1;stroke:none;stroke-width:2.22823524;stroke-miterlimit:4;stroke-dasharray:none;stroke-opacity:1" />
          <g
             id="g5674"
             style="fill:url(#linearGradient5716);fill-opacity:1;stroke:none;stroke-width:2.22823524;stroke-miterlimit:4;stroke-dasharray:none;stroke-opacity:1" />
          <g
             id="g5676"
             style="fill:url(#linearGradient5718);fill-opacity:1;stroke:none;stroke-width:2.22823524;stroke-miterlimit:4;stroke-dasharray:none;stroke-opacity:1" />
          <g
             id="g5678"
             style="fill:url(#linearGradient5720);fill-opacity:1;stroke:none;stroke-width:2.22823524;stroke-miterlimit:4;stroke-dasharray:none;stroke-opacity:1" />
          <g
             id="g5680"
             style="fill:url(#linearGradient5722);fill-opacity:1;stroke:none;stroke-width:2.22823524;stroke-miterlimit:4;stroke-dasharray:none;stroke-opacity:1" />
          <g
             id="g5682"
             style="fill:url(#linearGradient5724);fill-opacity:1;stroke:none;stroke-width:2.22823524;stroke-miterlimit:4;stroke-dasharray:none;stroke-opacity:1" />
          <g
             id="g5684"
             style="fill:url(#linearGradient5726);fill-opacity:1;stroke:none;stroke-width:2.22823524;stroke-miterlimit:4;stroke-dasharray:none;stroke-opacity:1" />
          <g
             id="g5686"
             style="fill:url(#linearGradient5728);fill-opacity:1;stroke:none;stroke-width:2.22823524;stroke-miterlimit:4;stroke-dasharray:none;stroke-opacity:1" />
          <g
             id="g5688"
             style="fill:url(#linearGradient5730);fill-opacity:1;stroke:none;stroke-width:2.22823524;stroke-miterlimit:4;stroke-dasharray:none;stroke-opacity:1" />
          <g
             id="g5690"
             style="fill:url(#linearGradient5732);fill-opacity:1;stroke:none;stroke-width:2.22823524;stroke-miterlimit:4;stroke-dasharray:none;stroke-opacity:1" />
          <g
             id="g5692"
             style="fill:url(#linearGradient5734);fill-opacity:1;stroke:none;stroke-width:2.22823524;stroke-miterlimit:4;stroke-dasharray:none;stroke-opacity:1" />
          <g
             id="g5694"
             style="fill:url(#linearGradient5736);fill-opacity:1;stroke:none;stroke-width:2.22823524;stroke-miterlimit:4;stroke-dasharray:none;stroke-opacity:1" />
          <g
             id="g5696"
             style="fill:url(#linearGradient5738);fill-opacity:1;stroke:none;stroke-width:2.22823524;stroke-miterlimit:4;stroke-dasharray:none;stroke-opacity:1" />
          <g
             id="g5698"
             style="fill:url(#linearGradient5740);fill-opacity:1;stroke:none;stroke-width:2.22823524;stroke-miterlimit:4;stroke-dasharray:none;stroke-opacity:1" />
          <g
             id="g5700"
             style="fill:url(#linearGradient5742);fill-opacity:1;stroke:none;stroke-width:2.22823524;stroke-miterlimit:4;stroke-dasharray:none;stroke-opacity:1" />
        </g>
      </g>
    </clipPath>
    <clipPath
       clipPathUnits="userSpaceOnUse"
       id="clipPath6024">
      <g
         style="stroke:none;stroke-width:14.07298756;stroke-miterlimit:4;stroke-dasharray:none;stroke-opacity:1"
         transform="matrix(0.13671624,0,0,0.13671624,321.28492,198.20342)"
         id="g6026">
        <g
           style="fill:url(#linearGradient6080);fill-opacity:1;stroke:none;stroke-width:1.2243638;stroke-miterlimit:4;stroke-dasharray:none;stroke-opacity:1"
           inkscape:label="Layer 1"
           id="g6028"
           transform="matrix(11.494123,0,0,11.494123,-4217.9843,-5980.6616)">
          <g
             id="g6030"
             inkscape:label="Layer 1"
             transform="translate(-0.11123528,0.03124873)"
             style="fill:url(#linearGradient6078);fill-opacity:1;stroke:none;stroke-width:1.2243638;stroke-miterlimit:4;stroke-dasharray:none;stroke-opacity:1">
            <g
               style="fill:url(#linearGradient6076);fill-opacity:1;stroke:none;stroke-width:1.2243638;stroke-miterlimit:4;stroke-dasharray:none;stroke-opacity:1"
               transform="translate(0.13524268,0.04517549)"
               inkscape:label="Layer 1"
               id="g6032">
              <circle
                 r="13.999958"
                 cy="531.79797"
                 cx="400.57144"
                 id="circle6034"
                 style="opacity:1;fill:url(#linearGradient6072);fill-opacity:1;stroke:none;stroke-width:1.2243638;stroke-miterlimit:4;stroke-dasharray:none;stroke-dashoffset:0;stroke-opacity:1" />
              <circle
                 r="0"
                 cy="531.79791"
                 cx="400.57138"
                 id="circle6036"
                 style="opacity:1;fill:url(#linearGradient6074);fill-opacity:1;stroke:none;stroke-width:1.2243638;stroke-miterlimit:4;stroke-dasharray:none;stroke-dashoffset:0;stroke-opacity:1" />
            </g>
          </g>
        </g>
        <g
           id="g6038"
           transform="matrix(6.3157549,0,0,6.3157549,271.42775,15.609621)"
           style="fill:url(#linearGradient6114);fill-opacity:1;stroke:none;stroke-width:2.22823524;stroke-miterlimit:4;stroke-dasharray:none;stroke-opacity:1">
          <g
             id="g6040"
             style="fill:url(#linearGradient6082);fill-opacity:1;stroke:none;stroke-width:2.22823524;stroke-miterlimit:4;stroke-dasharray:none;stroke-opacity:1" />
          <g
             id="g6042"
             style="fill:url(#linearGradient6084);fill-opacity:1;stroke:none;stroke-width:2.22823524;stroke-miterlimit:4;stroke-dasharray:none;stroke-opacity:1" />
          <g
             id="g6044"
             style="fill:url(#linearGradient6086);fill-opacity:1;stroke:none;stroke-width:2.22823524;stroke-miterlimit:4;stroke-dasharray:none;stroke-opacity:1" />
          <g
             id="g6046"
             style="fill:url(#linearGradient6088);fill-opacity:1;stroke:none;stroke-width:2.22823524;stroke-miterlimit:4;stroke-dasharray:none;stroke-opacity:1" />
          <g
             id="g6048"
             style="fill:url(#linearGradient6090);fill-opacity:1;stroke:none;stroke-width:2.22823524;stroke-miterlimit:4;stroke-dasharray:none;stroke-opacity:1" />
          <g
             id="g6050"
             style="fill:url(#linearGradient6092);fill-opacity:1;stroke:none;stroke-width:2.22823524;stroke-miterlimit:4;stroke-dasharray:none;stroke-opacity:1" />
          <g
             id="g6052"
             style="fill:url(#linearGradient6094);fill-opacity:1;stroke:none;stroke-width:2.22823524;stroke-miterlimit:4;stroke-dasharray:none;stroke-opacity:1" />
          <g
             id="g6054"
             style="fill:url(#linearGradient6096);fill-opacity:1;stroke:none;stroke-width:2.22823524;stroke-miterlimit:4;stroke-dasharray:none;stroke-opacity:1" />
          <g
             id="g6056"
             style="fill:url(#linearGradient6098);fill-opacity:1;stroke:none;stroke-width:2.22823524;stroke-miterlimit:4;stroke-dasharray:none;stroke-opacity:1" />
          <g
             id="g6058"
             style="fill:url(#linearGradient6100);fill-opacity:1;stroke:none;stroke-width:2.22823524;stroke-miterlimit:4;stroke-dasharray:none;stroke-opacity:1" />
          <g
             id="g6060"
             style="fill:url(#linearGradient6102);fill-opacity:1;stroke:none;stroke-width:2.22823524;stroke-miterlimit:4;stroke-dasharray:none;stroke-opacity:1" />
          <g
             id="g6062"
             style="fill:url(#linearGradient6104);fill-opacity:1;stroke:none;stroke-width:2.22823524;stroke-miterlimit:4;stroke-dasharray:none;stroke-opacity:1" />
          <g
             id="g6064"
             style="fill:url(#linearGradient6106);fill-opacity:1;stroke:none;stroke-width:2.22823524;stroke-miterlimit:4;stroke-dasharray:none;stroke-opacity:1" />
          <g
             id="g6066"
             style="fill:url(#linearGradient6108);fill-opacity:1;stroke:none;stroke-width:2.22823524;stroke-miterlimit:4;stroke-dasharray:none;stroke-opacity:1" />
          <g
             id="g6068"
             style="fill:url(#linearGradient6110);fill-opacity:1;stroke:none;stroke-width:2.22823524;stroke-miterlimit:4;stroke-dasharray:none;stroke-opacity:1" />
          <g
             id="g6070"
             style="fill:url(#linearGradient6112);fill-opacity:1;stroke:none;stroke-width:2.22823524;stroke-miterlimit:4;stroke-dasharray:none;stroke-opacity:1" />
        </g>
      </g>
    </clipPath>
    <linearGradient
       gradientTransform="matrix(0.18512065,0.02600396,-0.02600396,0.18512065,15.998668,1005.4995)"
       gradientUnits="userSpaceOnUse"
       y2="18.617405"
       x2="29.444031"
       y1="201.7325"
       x1="29.444031"
       id="linearGradient4427"
       xlink:href="#linearGradient4421"
       inkscape:collect="always" />
    <linearGradient
       id="linearGradient4421"
       inkscape:collect="always">
      <stop
         id="stop4423"
         offset="0"
         style="stop-color:#e3e3e3;stop-opacity:1" />
      <stop
         id="stop4425"
         offset="1"
         style="stop-color:#fcf9f9;stop-opacity:1" />
    </linearGradient>
    <linearGradient
       inkscape:collect="always"
       xlink:href="#linearGradient4333"
       id="linearGradient6421"
       x1="306.84677"
       y1="235.77965"
       x2="306.72311"
       y2="187.9241"
       gradientUnits="userSpaceOnUse"
       gradientTransform="matrix(0.82491404,0,0,0.82491404,-235.19172,852.78024)" />
  </defs>
  <sodipodi:namedview
     id="base"
     pagecolor="#5a5a5a"
     bordercolor="#666666"
     borderopacity="1.0"
     inkscape:pageopacity="0"
     inkscape:pageshadow="2"
     inkscape:zoom="11.30836"
     inkscape:cx="18.432652"
     inkscape:cy="20.560233"
     inkscape:document-units="px"
     inkscape:current-layer="g4325"
     showgrid="false"
     fit-margin-top="0"
     fit-margin-left="0"
     fit-margin-right="0"
     fit-margin-bottom="0"
     inkscape:window-width="1366"
     inkscape:window-height="712"
     inkscape:window-x="0"
     inkscape:window-y="28"
     inkscape:window-maximized="1"
     inkscape:showpageshadow="false"
     borderlayer="true"
     showguides="false"
     showborder="true">
    <sodipodi:guide
       position="1.1650391e-05,47.999996"
       orientation="4,0"
       id="guide4146" />
    <sodipodi:guide
       position="1.1650391e-05,43.999996"
       orientation="0,48"
       id="guide4148" />
    <sodipodi:guide
       position="48.000012,43.999996"
       orientation="-4,0"
       id="guide4150" />
    <sodipodi:guide
       position="48.000012,47.999996"
       orientation="0,-48"
       id="guide4152" />
    <sodipodi:guide
       position="1.1650391e-05,4.0000264"
       orientation="4,0"
       id="guide4154" />
    <sodipodi:guide
       position="1.1650391e-05,2.6367188e-05"
       orientation="0,48"
       id="guide4156" />
    <sodipodi:guide
       position="48.000012,2.6367188e-05"
       orientation="-4,0"
       id="guide4158" />
    <sodipodi:guide
       position="48.000012,4.0000264"
       orientation="0,-48"
       id="guide4160" />
    <sodipodi:guide
       position="48.000012,48.000026"
       orientation="0,-4"
       id="guide4162" />
    <sodipodi:guide
       position="44.000012,48.000026"
       orientation="48,0"
       id="guide4164" />
    <sodipodi:guide
       position="44.000012,2.6367188e-05"
       orientation="0,4"
       id="guide4166" />
    <sodipodi:guide
       position="48.000012,2.6367188e-05"
       orientation="-48,0"
       id="guide4168" />
    <sodipodi:guide
       position="4.0000422,48.000026"
       orientation="0,-4"
       id="guide4170" />
    <sodipodi:guide
       position="4.2167969e-05,48.000026"
       orientation="48,0"
       id="guide4172" />
    <sodipodi:guide
       position="4.2167969e-05,2.6367188e-05"
       orientation="0,4"
       id="guide4174" />
    <sodipodi:guide
       position="4.0000422,2.6367188e-05"
       orientation="-48,0"
       id="guide4176" />
    <sodipodi:guide
       position="20,30"
       orientation="39.999969,0"
       id="guide4153" />
    <sodipodi:guide
       position="20.000012,4.0000264"
       orientation="0,8"
       id="guide4155" />
    <sodipodi:guide
       position="25,30"
       orientation="-39.999969,0"
       id="guide4157" />
    <sodipodi:guide
       position="28.000012,43.999996"
       orientation="0,-8"
       id="guide4159" />
    <sodipodi:guide
       position="22,6"
       orientation="-2.5,4"
       id="guide4338" />
    <sodipodi:guide
       position="22,11"
       orientation="5,0"
       id="guide4342" />
  </sodipodi:namedview>
  <metadata
     id="metadata5458">
    <rdf:RDF>
      <cc:Work
         rdf:about="">
        <dc:format>image/svg+xml</dc:format>
        <dc:type
           rdf:resource="http://purl.org/dc/dcmitype/StillImage" />
        <dc:title></dc:title>
      </cc:Work>
    </rdf:RDF>
  </metadata>
  <g
     inkscape:label="Layer 1"
     inkscape:groupmode="layer"
     id="layer1"
     transform="translate(-384.57143,-499.798)">
    <g
       transform="translate(392.24401,-502.51656)"
       id="layer1-4"
       inkscape:label="Layer 1">
      <g
         transform="matrix(1.138587,0,0,1.138587,-3.4562036,-142.80276)"
         id="g4413"
         style="stroke-width:1.31742239;stroke-miterlimit:4;stroke-dasharray:none">
        <g
           id="g4325"
           transform="matrix(1.0203324,0,0,1.0203324,-0.28478646,-20.859612)">
          <circle
             style="opacity:1;fill:url(#linearGradient6421);fill-opacity:1.0;stroke:none;stroke-width:2;stroke-miterlimit:4;stroke-dasharray:none"
             id="circle6413"
             cx="18.179415"
             cy="1027.6479"
             r="19.797937" />
          <circle
             r="15.602746"
             cy="1027.7184"
             cx="18.586145"
             id="path4173-0"
             style="opacity:1;fill:url(#linearGradient4489-1);fill-opacity:1.0;stroke:none;stroke-width:1.31742239;stroke-linecap:butt;stroke-linejoin:round;stroke-miterlimit:4;stroke-dasharray:none;stroke-opacity:1" />
          <path
             style="fill:#000000;fill-opacity:0.07843137;stroke:none;stroke-opacity:0.8"
             d="M 30.419922 9.8378906 L 30.419922 9.8398438 C 29.234342 9.9894755 26.465473 10.320915 26.960938 11.898438 L 26.742188 11.679688 L 23.650391 33.699219 C 22.632337 32.773082 19.737545 32.015862 19.283203 32.732422 L 19.064453 32.515625 C 16.342891 32.781082 13.506032 35.087314 13.830078 38.029297 C 13.958402 39.047908 14.478215 39.846362 15.125 40.566406 C 15.10613 40.545495 15.082963 40.531839 15.064453 40.509766 L 15.142578 40.587891 C 15.40692 40.880532 15.696342 41.155844 15.986328 41.431641 L 22.378906 47.824219 A 23 23 0 0 0 25.011719 47.988281 A 23 23 0 0 0 48.011719 24.988281 A 23 23 0 0 0 47.734375 21.542969 L 39.841797 13.650391 C 39.652694 13.47218 39.331919 13.142541 39.056641 12.865234 L 38.533203 12.341797 C 37.421641 11.557392 38.081261 12.207665 38.617188 12.732422 L 37.794922 11.912109 L 30.419922 9.8378906 z "
             transform="matrix(0.86077987,0,0,0.86077987,-3.3502605,1006.1379)"
             id="path4692" />
          <path
             style="fill:url(#linearGradient4427);fill-opacity:1;stroke:none;stroke-opacity:0.8"
             d="m 29.712509,1017.7493 c 0,0 0.194364,-0.6475 0.05785,-0.9245 -0.128136,-0.2598 -0.721274,-0.4851 -0.721274,-0.4851 l -6.349826,-1.7863 -9e-6,0 -8e-6,0 c -1.137392,0.1555 -2.996797,0.3898 -3.164692,1.585 l -2.662409,18.9536 c -1.023149,-0.7692 -2.413024,-1.2171 -3.946943,-1.0196 -2.767992,0.3566 -4.7700196,2.4843 -4.5052696,4.7472 0.264827,2.2623 2.7191606,3.8503 5.4871096,3.4939 2.208314,-0.2847 3.905815,-1.7286 4.384004,-3.4358 l 2.577683,-17.9023 7.185755,-0.9832"
             id="Music"
             inkscape:connector-curvature="0"
             sodipodi:nodetypes="caccccsccccccc" />
        </g>
      </g>
      <g
         style="fill:url(#linearGradient4460);fill-opacity:1"
         transform="matrix(0.48796879,0,0,0.48796879,21.356721,1026.8977)"
         id="g3" />
    </g>
  </g>
</svg>
